X: 29411
T: Nicodemus Johnson's
R: reel
M: 4/4
K: Gmajor
G,2G2 G,2GG|FGAF G2 ((3DEF)|GFGE DGBe|dcAF GEDB,|
G,2G2 G,2GG|FGAF G2 ((3DEF)|GFGE DGBe|dcAB cdef||
g3f e2ef|gfga BBBg-|ggf2 e2 ef|gfga bagf|
g2 ((3fgf) e2ef|gfga b4|BbbB b2 Ac|BGAF GEDB,||

